Catalina-light/actions/16/distribute-horizontal-baseline.svg

<svg xmlns="http://www.w3.org/2000/svg" width="16" height="16" viewBox="0 0 16 16">
 <defs>
  <style id="current-color-scheme" type="text/css">
   .ColorScheme-Text { color:#5c616c; } .ColorScheme-Highlight { color:#5294e2; }
  </style>
 </defs>
 <path style="fill:currentColor" class="ColorScheme-Text" d="M 1 2 L 1 14 L 3 14 L 3 2 L 1 2 z M 5 3 L 5 5 L 10.996094 5 C 11.423954 5 11.994141 5.61414 11.994141 6 L 11.994141 7 L 6.9980469 7 C 6.0794269 7 5.264 7.38396 4.75 7.96875 C 4.23596 8.55354 3.99361 9.2794 4 10 C 4.006 10.72062 4.26929 11.45275 4.78125 12.03125 C 5.29321 12.60979 6.0903469 13 6.9980469 13 L 13.994141 13 L 13.994141 12.15625 C 14.009741 12.0625 13.994141 12 13.994141 12 L 13.994141 6 C 13.994141 4.3657 12.675094 3 10.996094 3 L 5 3 z M 6.9980469 9 L 11.994141 9 L 11.994141 11 L 6.9980469 11 C 6.6004569 11 6.43298 10.89021 6.28125 10.71875 C 6.12952 10.54729 6.00248 10.27938 6 10 C 5.998 9.72062 6.10478 9.44646 6.25 9.28125 C 6.39523 9.11604 6.5759869 9 6.9980469 9 z"/>
</svg>

<svg width="16" height="16" viewBox="0 0 16 16" xmlns="http://www.w3.org/2000/svg">
<defs>
<style id="current-color-scheme" type="text/css">.ColorScheme-Text { color:#5c616c; } .ColorScheme-Highlight { color:#5294e2; }</style>
</defs>
<path class="ColorScheme-Text" d="m1 2v12h2v-12h-2zm4 1v2h5.9961c0.42786 0 0.99805 0.61414 0.99805 1v1h-4.9961c-0.91862 0-1.734 0.38396-2.248 0.96875-0.51404 0.58479-0.75639 1.3106-0.75 2.0312 6e-3 0.72062 0.26929 1.4528 0.78125 2.0312 0.51196 0.57854 1.3091 0.96875 2.2168 0.96875h6.9961v-0.84375c0.0156-0.09375 0-0.15625 0-0.15625v-6c0-1.6343-1.319-3-2.998-3h-5.9961zm1.998 6h4.9961v2h-4.9961c-0.39759 0-0.56507-0.10979-0.7168-0.28125s-0.27877-0.43937-0.28125-0.71875c-2e-3 -0.27938 0.10478-0.55354 0.25-0.71875 0.14523-0.16521 0.32599-0.28125 0.74805-0.28125z" fill="currentColor"/>
</svg>
